svg/chalice.svg

<svg viewBox="0 0 20 20" xmlns="http://www.w3.org/2000/svg">
<rect width="100%" height="100%" fill="#31BCA1"/>
<path fill-rule="evenodd" clip-rule="evenodd" d="M16.7493 2.76513C16.6094 5.81861 14.3027 8.46328 11.4246 9.13753C11.3935 9.43784 11.3119 9.92997 11.1001 10.145C11.0926 10.1519 11.086 10.1597 11.0806 10.1683V10.9336C11.2769 11.0886 11.5995 11.4528 11.7511 12.2395C11.7657 12.3153 11.7633 12.3934 11.7441 12.4682C11.7249 12.543 11.6893 12.6126 11.6398 12.672C11.5904 12.7315 11.5284 12.7793 11.4583 12.812C11.3881 12.8448 11.3116 12.8616 11.2342 12.8614H11.0923C11.1545 13.5008 11.5121 15.2677 13.4554 16.7945C13.5404 16.8615 13.6025 16.9533 13.6329 17.0571C13.6633 17.1608 13.6606 17.2715 13.6252 17.3736C13.5897 17.4758 13.5233 17.5645 13.4351 17.6273C13.3469 17.6902 13.2412 17.7241 13.1328 17.7245H6.86947C6.76198 17.7232 6.65752 17.6888 6.57031 17.6262C6.48309 17.5635 6.41738 17.4756 6.38211 17.3743C6.34685 17.2731 6.34375 17.1635 6.37323 17.0604C6.40272 16.9573 6.46335 16.8658 6.54688 16.7984C8.49797 15.2716 8.84971 13.5085 8.9119 12.8653H8.77004C8.69276 12.8652 8.61644 12.8482 8.54654 12.8153C8.47664 12.7824 8.41488 12.7346 8.36568 12.6752C8.31648 12.6158 8.28105 12.5462 8.26193 12.4716C8.24281 12.3969 8.24046 12.319 8.25506 12.2433C8.40664 11.4567 8.72923 11.0925 8.92356 10.9375V10.1625C8.92356 10.1625 8.92217 10.161 8.92108 10.1589C8.91866 10.1544 8.91473 10.147 8.90801 10.147C8.6923 9.92996 8.61068 9.43784 8.57959 9.13753C5.70154 8.46328 3.39482 5.81861 3.25102 2.77481C3.24652 2.70379 3.25699 2.63262 3.28176 2.56588C3.30653 2.49914 3.34504 2.43831 3.39482 2.38732C3.44472 2.33477 3.50505 2.29317 3.57197 2.26515C3.63888 2.23713 3.71092 2.22331 3.78348 2.22457H16.2207C16.2932 2.22378 16.3651 2.23781 16.432 2.2658C16.4988 2.29379 16.5592 2.33515 16.6094 2.38732C16.6572 2.43751 16.6943 2.4969 16.7184 2.56185C16.7424 2.62681 16.7529 2.69598 16.7493 2.76513Z" fill="white"/>
</svg>

<svg xmlns="http://www.w3.org/2000/svg" viewBox="0 0 20 20">
  <rect width="100%" height="100%" fill="#31BCA1"/>
  <path fill="#fff" fill-rule="evenodd" d="M16.75 2.77a7.02 7.02 0 0 1-5.33 6.37c-.03.3-.1.79-.32 1l-.02.03v.76c.2.16.52.52.67 1.3a.52.52 0 0 1-.52.63h-.14c.06.64.42 2.4 2.37 3.93a.52.52 0 0 1-.33.93H6.87a.52.52 0 0 1-.5-.66c.03-.1.1-.2.18-.26a5.8 5.8 0 0 0 2.36-3.93h-.14a.53.53 0 0 1-.51-.63c.15-.78.47-1.15.66-1.3v-.78l-.01-.01c-.22-.22-.3-.71-.33-1.01a7.02 7.02 0 0 1-5.33-6.37.5.5 0 0 1 .14-.38.52.52 0 0 1 .4-.17h12.43a.53.53 0 0 1 .39.17.51.51 0 0 1 .14.38Z" clip-rule="evenodd"/>
</svg>
